X:1
T:Gottes Rat und Scheiden
T:Melodie: Felix Mendelssohn-Bartholdy Satz: Friedrich Erk
T:Ernst von Feuchtersleben 
T:Gottes Rat und Scheiden
T:CPDL - Creative Commons Attribution Non Commercial 3.0
T:CPDL - Creative Commons Attribution Non Commercial 3.0
C:Friedrich Erk
Z:Ernst von Feuchtersleben
Z:CPDL - Creative Commons Attribution Non Commercial 3.0
%%score [ ( 1 2 ) ( 3 4 ) ]
L:1/8
Q:1/4=88
M:4/4
K:Eb
V:1 treble nm="Sopran\nAlt"
V:2 treble 
V:3 bass nm="Tenor\nBass"
V:4 bass 
V:1
"^Etwas angehalten"!mf!"^Chor" B2 | A3 G G2 e2 | d3 c c2!p! c2 |!<(! F2 G2 A2 c2!<)! | %4
w: ||||
!>(! B3 A!>)! !breath!G2!p! B2 | (F3!>(! A)!>)! !breath!G2"^Einzelne" B2 | %6
w: ||
 (F3 A) !breath!G2"^Chor"!mf!!<(! G2!<)! | e2 d2 c3 B |!>(! B3 =A!>)! !breath!A2 F2 | %9
w: |||
 d2 c2!<(! B3 =A!<)! |!>(! =A3 G !breath!G2!>)! B2 | (F3!>(! A)!>)! !breath!G2"^Einzelne" B2 | %12
w: |||
 (F3 A) !breath!G2"^Chor" B2 | (F6 A2) | !fermata!G6 :|!f! B2 | A3 G G2 e2 | %17
w: |||||
 d3 c !breath!!fermata!c2"^Einzelne"!p! c2 |!<(! F2 G2 A2!<)!"^Chor"!p! c2 | %19
w: |* * * ja|
 B3 A !breath!G2!mf!!<(! G2 | e2 d2 c3!<)! B | B3 =A !breath!A2!f! c2 | f2 e2 d2 z c | %23
w: ||||
!>(! !fermata!c3 B!>)! !breath!!fermata!B2!p! B2 | F3 A !breath!G2"^Einzelne" B2 | %25
w: ||
 F3 A !breath!G2"^Chor" B2 | F6 A2 | !fermata!G6 |] %28
w: |||
V:2
 G2 | F3 E E2 E2 | E3 E E2 E2 | D2 =E2 F2 G2 | F2 D2 E2 E2 | (E2 D2) E2 E2 | (E2 D2) E2 G2 | %7
w: 1.~Es|ist be- stimmt in|Got- tes Rat, dass|man vom Liebs- ten,|was man hat, muss|schei- * den, muss|schei- * den; wie-|
w: 2.~So|dir ge- schenkt ein|Knösp- lein was, so|tu' es in ein|Was- ser- glas, doch|wis- * se, doch|wis- * se: Blüht|
 G2 G2 G3 G | F3 F F2 F2 | F2 E2 D2 ^F2 | ^F3 G G2 E2 | (E2 D2) E2 E2 | (E2 D2) E2 E2 | (E4 D4) | %14
w: wohl doch nichts im|Lauf der Welt, dem|Her- zen, ach, so|sau- er fällt als|Schei- * den, als|Schei- * den, ja|Schei- *|
w: mor- gen dir ein|Rös- lein auf, es|welkt wohl schon die|Nacht dar- auf; das|wis- * se, das|wis- * se, ja|wis- *|
 E6 :| G2 | F3 E E2 E2 | E3 E E2 E2 | D2 =E2 F2 G2 | F2 D2 E2 E2 | G2 G2 G3 G | F3 F F2 F2 | %22
w: den!|3.~Nun|musst du mich auch|recht ver- steh'n, nun|musst du mich auch|recht ver- steh'n, wenn|Men- schen aus- ein-|an- der geh'n, so|
w: se!||||||||
 F2 G2 F2 E2 | E3 D D2 E2 | E2 D2 E2 E2 | E2 D2 E2 E2 | E4 D4 | E6 |] %28
w: sa- gen sie: Auf|Wie- der- seh'n, auf|Wie- der- seh'n, auf|Wie- der- seh'n, auf|Wie- der-|seh'n!|
w: ||||||
V:3
!mf! B,2 | A,3 G, G,2 B,2 | B,3 A, A,2!p! C2 | C2 B,2 C2 G,2 | B,2 B,2 !breath!B,2!p! B,2 | %5
 (C2 B,2) !breath!B,2 B,2 | (C2 B,2) !breath!B,2!mf! B,2 | C2 =B,2 C2 E2 | D3 C !breath!C2 C2 | %9
 B,2 G,2 G,2 C2 | C3 B, !breath!B,2 B,2 | (C2 B,2) !breath!B,2 B,2 | (C2 B,2) !breath!B,2 B,2 | %13
 B,8 | B,6 :|!f! B,2 | A,3 G, G,2 B,2 | B,3 A, !breath!A,2!p! C2 | C2 B,2 C2!p! G,2 | %19
 B,2 B,2 !breath!B,2!mf! B,2 | C2 =B,2 C2 E2 | D3 C !breath!C2!f! =A,2 | B,2 G,2 B,2 =A,2 | %23
 G,3 G, !breath!G,2!p! B,2 | C2 B,2 !breath!B,2 B,2 | C2 B,2 !breath!B,2 B,2 | B,6 B,2 | B,6 |] %28
V:4
 G,2 | F,3 E, E,2 G,,2 | A,,3 A,, A,,2 A,2 | A,2 G,2 F,2 _E,2 | D,2 B,,2 E,2 [G,,G,]2 | %5
 ([A,,A,]2 [B,,B,]2) E,2 [G,,G,]2 | ([A,,A,]2 [B,,B,]2) E,2 E,2 | C,2 D,2 E,2 C,2 | %8
 F,3 F, F,2 =A,,2 | B,,2 C,2 D,2 D,2 | E,3 E, E,2 [G,,G,]2 | ([A,,A,]2 [B,,B,]2) E,2 [G,,G,]2 | %12
 ([A,,A,]2 [B,,B,]2) E,2 G,2 | B,,8 | !fermata!E,6 :| G,2 | F,3 E, E,2 G,,2 | %17
 A,,3 A,, !fermata!A,,2 A,2 | A,2 G,2 F,2 _E,2 | D,2 B,,2 E,2 E,2 | C,2 D,2 E,2 C,2 | %21
 F,3 F, F,2 E,2 | D,2 E,2 F,2 ^F,2 | !fermata!G,3 G, !fermata![G,,G,]2 G,2 | A,2 B,2 E,2 G,2 | %25
 A,2 B,2 E,2 [G,,G,]2 | B,,4 B,,4 | !fermata!E,6 |] %28

